X: 30464
T: Old Wheels Of The World, The
R: reel
M: 4/4
K: Adorian
eAcA eAcA|~G3F EFGB|A3B cBcd|eaag egdg:|
|:eaag eaaf|efgf efge|afge dA (3Bcd|eaag egdg:|
|:eaag egdg|eaag eaaf|efgf efge|afge dA (3Bcd:|
efgf efgf|eaa^g eaag|efge efgf|afge d2d2|

